final/cherries.svg

<?xml version="1.0" encoding="iso-8859-1"?>
<!-- Generator: Adobe Illustrator 10, SVG Export Plug-In . SVG Version: 3.0.0 Build 76)  -->
<!DOCTYPE svg PUBLIC "-//W3C//DTD SVG 1.0//EN"    "http://www.w3.org/TR/2001/REC-SVG-20010904/DTD/svg10.dtd" [
	<!ENTITY ns_flows "http://ns.adobe.com/Flows/1.0/">
	<!ENTITY ns_svg "http://www.w3.org/2000/svg">
	<!ENTITY ns_xlink "http://www.w3.org/1999/xlink">
]>
<svg  xmlns="&ns_svg;" xmlns:xlink="&ns_xlink;" xmlns:a="http://ns.adobe.com/AdobeSVGViewerExtensions/3.0/"
	 width="468.311" height="747.057" viewBox="0 0 468.311 747.057"
	 style="overflow:visible;enable-background:new 0 0 468.311 747.057" xml:space="preserve">
	<style type="text/css">
	<![CDATA[
		@font-face{font-family:'Times-Roman';src:url(19E451E5.cef)}
	]]>
	</style>
	<g id="Layer_1">
		<text transform="matrix(1 0 0 1 0 684.0942)"><tspan x="0" y="0" style="font-family:'Times-Roman'; font-size:12;">&quot;Cherries&quot;</tspan><tspan x="0" y="14.5" style="font-family:'Times-Roman'; font-size:12;">Copyright </tspan><tspan x="51.668" y="14.5" style="font-family:'Times-Roman'; font-size:12;">&#xA9;</tspan><tspan x="60.785" y="14.5" style="font-family:'Times-Roman'; font-size:12;"> 2000 Rob Myers http://www.robmyers.org/ .</tspan><tspan x="0" y="29" style="font-family:'Times-Roman'; font-size:12;">This work is licensed under the Creative Commons Attribution-ShareAlike License.</tspan><tspan x="0" y="43.5" style="font-family:'Times-Roman'; font-size:12;">To view a copy of this license, visit http://creativecommons.org/licenses/by-sa/1.0/ </tspan><tspan x="0" y="58" style="font-family:'Times-Roman'; font-size:12;">or send a letter to Creative Commons, 559 Nathan Abbott Way, Stanford, California 94305, USA.</tspan></text>
		<g>
			<g>
				<path style="stroke:#000000;stroke-width:7.992;" d="M42.872,185.651c8.928-8.064,17.928-16.057,26.928-24.12
					c36.144,63.216,77.616,128.088,92.736,209.448c15.12,81.504,16.272,161.208,24.696,240.983
					c-14.544,3.168-29.304,5.977-44.136,7.992c-6.696-76.752-3.528-154.08-13.176-234.504
					C120.2,304.955,78.8,244.115,42.872,185.651z"/>
				<path style="stroke:#000000;stroke-width:7.992;" d="M94.712,139.859c8.928-8.496,17.712-17.137,26.424-25.92
					c36.72,71.928,78.264,144.216,103.536,226.871c25.416,83.16,47.736,159.912,59.473,245.232
					c-12.457,5.4-34.345,15.192-48.889,18.792c-10.008-82.296-22.896-165.096-42.84-247.248
					C172.544,275.579,131.216,207.107,94.712,139.859z"/>
				<path style="stroke:#000000;stroke-width:7.992;" d="M133.016,92.338c8.784-8.784,17.496-17.496,26.28-26.496
					c36,77.4,77.256,153.36,110.664,235.008c33.696,82.297,75.744,155.593,107.64,236.232
					c-12.455,9.288-33.264,20.592-47.231,26.064c-22.968-82.009-61.272-156.816-90.216-240.049
					C211.424,240.514,169.232,166.93,133.016,92.338z"/>
				<path style="stroke:#000000;stroke-width:7.992;" d="M28.688,123.586c10.656-0.936,20.088,7.056,20.952,17.712
					c0.864,10.656-7.128,20.088-17.784,20.952c-10.656,0.864-20.088-7.056-20.952-17.784
					C10.04,133.811,18.032,124.451,28.688,123.586z"/>
				<path style="stroke:#000000;stroke-width:7.992;" d="M84.704,78.875c10.656-0.864,20.088,7.128,20.952,17.784
					c0.864,10.656-7.128,20.088-17.784,20.952c-10.656,0.863-20.016-7.128-20.952-17.784C66.056,89.17,74.048,79.739,84.704,78.875z
					"/>
				<path style="stroke:#000000;stroke-width:7.992;" d="M127.688,28.042c10.656-0.864,20.088,7.128,20.952,17.784
					c0.864,10.656-7.056,20.088-17.712,20.952c-10.656,0.863-20.088-7.128-20.952-17.784
					C109.112,38.338,117.032,28.907,127.688,28.042z"/>
				<path style="stroke:#000000;stroke-width:7.992;" d="M154.544,28.258c31.104,21.456,60.696,52.776,84.024,91.584
					c60.552,98.712,59.184,209.521-2.952,247.248c-61.848,37.584-160.92-11.88-220.392-109.872l33.48,407.16l38.664-3.168
					C79.52,597.995,122,515.05,199.184,454.499c70.272-54.576,150.625-77.04,209.448-64.08L377.384,9.97L154.544,28.258z"/>
			</g>
			<path style="fill:#E1BDD0;stroke:#A55A4F;stroke-width:7.992;" d="M44.96,154.115c9.576-7.272,19.224-14.544,28.8-21.816
				c30.816,66.024,66.888,134.064,75.312,216.36c8.352,82.439,2.952,162,4.896,242.208c-14.832,1.943-29.736,3.527-44.712,4.32
				c-0.36-77.04,9.144-153.864,6.048-234.792C112.28,279.395,75.992,215.386,44.96,154.115z"/>
			<path style="fill:#E1BDD0;stroke:#A55A4F;stroke-width:7.992;" d="M100.4,112.787c9.576-7.776,19.08-15.624,28.512-23.76
				c30.672,74.735,66.168,150.191,84.527,234.647c18.504,84.96,34.488,163.296,39.168,249.265
				c-12.887,4.392-35.424,12.384-50.255,14.76c-3.24-82.8-9.288-166.464-22.464-249.984
				C166.856,254.411,131.288,182.771,100.4,112.787z"/>
			<path style="fill:#E1BDD0;stroke:#A55A4F;stroke-width:7.992;" d="M142.52,68.506c9.432-8.063,18.864-15.983,28.296-24.264
				c29.592,80.136,64.44,159.191,91.008,243.288c26.855,84.815,62.783,161.279,88.056,244.296
				c-13.248,8.208-34.991,17.784-49.319,22.104c-16.129-83.592-48.24-161.352-70.272-246.672
				C208.472,222.586,172.472,145.834,142.52,68.506z"/>
			<path style="fill:#FB674E;stroke:#EF1209;stroke-width:7.992;" d="M35.888,91.115c10.728,0,19.44,8.712,19.44,19.368
				c0,10.728-8.712,19.439-19.44,19.439c-10.656,0-19.368-8.712-19.368-19.439C16.52,99.827,25.232,91.115,35.888,91.115z"/>
			<path style="fill:#FB674E;stroke:#EF1209;stroke-width:7.992;" d="M95.432,51.155c10.656,0,19.368,8.712,19.368,19.439
				c0,10.656-8.712,19.368-19.368,19.368c-10.728,0-19.44-8.712-19.44-19.368C75.992,59.867,84.704,51.155,95.432,51.155z"/>
			<path style="fill:#FB674E;stroke:#EF1209;stroke-width:7.992;" d="M142.448,3.995c10.656,0,19.44,8.784,19.44,19.439
				c0,10.729-8.784,19.44-19.44,19.44c-10.728,0-19.44-8.712-19.44-19.44C123.008,12.779,131.72,3.995,142.448,3.995z"/>
			<path style="fill:#D1D193;stroke:#A8A810;stroke-width:7.992;" d="M169.16,6.443c29.232,23.903,56.16,57.527,76.248,98.208
				c52.271,103.319,41.832,213.624-23.256,246.096c-64.729,32.4-159.336-25.056-210.601-127.512v408.527H50.36
				c-2.664-63.72,46.44-142.848,128.376-196.848c74.52-48.6,156.384-64.44,213.984-46.728V6.443H169.16z"/>
		</g>
	</g>
</svg>

<?xml version="1.0" encoding="UTF-8" standalone="no"?>
<!-- Generator: Adobe Illustrator 10, SVG Export Plug-In . SVG Version: 3.0.0 Build 76)  -->
<svg
   xmlns:dc="http://purl.org/dc/elements/1.1/"
   xmlns:cc="http://creativecommons.org/ns#"
   xmlns:rdf="http://www.w3.org/1999/02/22-rdf-syntax-ns#"
   xmlns:svg="http://www.w3.org/2000/svg"
   xmlns="http://www.w3.org/2000/svg"
   xmlns:sodipodi="http://sodipodi.sourceforge.net/DTD/sodipodi-0.dtd"
   xmlns:inkscape="http://www.inkscape.org/namespaces/inkscape"
   width="405.78397"
   height="668.375"
   viewBox="0 0 468.311 747.057"
   style="overflow:visible"
   xml:space="preserve"
   id="svg2509"
   sodipodi:version="0.32"
   inkscape:version="0.46"
   sodipodi:docname="cherries.svg"
   inkscape:output_extension="org.inkscape.output.svg.inkscape"
   version="1.0"><metadata
   id="metadata2565"><rdf:RDF><cc:Work
       rdf:about=""><dc:format>image/svg+xml</dc:format><dc:type
         rdf:resource="http://purl.org/dc/dcmitype/StillImage" /></cc:Work></rdf:RDF></metadata><defs
   id="defs2563"><inkscape:perspective
   sodipodi:type="inkscape:persp3d"
   inkscape:vp_x="0 : 373.5285 : 1"
   inkscape:vp_y="0 : 1000 : 0"
   inkscape:vp_z="468.311 : 373.5285 : 1"
   inkscape:persp3d-origin="234.1555 : 249.019 : 1"
   id="perspective2567" />
		
		
	</defs><sodipodi:namedview
   inkscape:window-height="670"
   inkscape:window-width="640"
   inkscape:pageshadow="2"
   inkscape:pageopacity="0.0"
   guidetolerance="10.0"
   gridtolerance="10.0"
   objecttolerance="10.0"
   borderopacity="1.0"
   bordercolor="#666666"
   pagecolor="#ffffff"
   id="base"
   showgrid="false"
   inkscape:zoom="0.6184267"
   inkscape:cx="234.1555"
   inkscape:cy="373.5285"
   inkscape:window-x="89"
   inkscape:window-y="97"
   inkscape:current-layer="svg2509" />
	<style
   type="text/css"
   id="style2511">
	
		@font-face{font-family:'Times-Roman';src:url(19E451E5.cef)}
	
	</style>
	
<g
   style="overflow:visible"
   id="g2530"
   transform="matrix(1.1540895,0,0,1.1540895,-7.8986378,-12.152643)">
			<g
   id="g2532">
				<path
   id="path2534"
   d="M 42.872,185.651 C 51.8,177.587 60.8,169.594 69.8,161.531 C 105.944,224.747 147.416,289.619 162.536,370.979 C 177.656,452.483 178.808,532.187 187.232,611.962 C 172.688,615.13 157.928,617.939 143.096,619.954 C 136.4,543.202 139.568,465.874 129.92,385.45 C 120.2,304.955 78.8,244.115 42.872,185.651 z"
   style="stroke:#000000;stroke-width:7.9920001" />
				<path
   id="path2536"
   d="M 94.712,139.859 C 103.64,131.363 112.424,122.722 121.136,113.939 C 157.856,185.867 199.4,258.155 224.672,340.81 C 250.088,423.97 272.408,500.722 284.145,586.042 C 271.688,591.442 249.8,601.234 235.256,604.834 C 225.248,522.538 212.36,439.738 192.416,357.586 C 172.544,275.579 131.216,207.107 94.712,139.859 z"
   style="stroke:#000000;stroke-width:7.9920001" />
				<path
   id="path2538"
   d="M 133.016,92.338 C 141.8,83.554 150.512,74.842 159.296,65.842 C 195.296,143.242 236.552,219.202 269.96,300.85 C 303.656,383.147 345.704,456.443 377.6,537.082 C 365.145,546.37 344.336,557.674 330.369,563.146 C 307.401,481.137 269.097,406.33 240.153,323.097 C 211.424,240.514 169.232,166.93 133.016,92.338 z"
   style="stroke:#000000;stroke-width:7.9920001" />
				<path
   id="path2540"
   d="M 28.688,123.586 C 39.344,122.65 48.776,130.642 49.64,141.298 C 50.504,151.954 42.512,161.386 31.856,162.25 C 21.2,163.114 11.768,155.194 10.904,144.466 C 10.04,133.811 18.032,124.451 28.688,123.586 z"
   style="stroke:#000000;stroke-width:7.9920001" />
				<path
   id="path2542"
   d="M 84.704,78.875 C 95.36,78.011 104.792,86.003 105.656,96.659 C 106.52,107.315 98.528,116.747 87.872,117.611 C 77.216,118.474 67.856,110.483 66.92,99.827 C 66.056,89.17 74.048,79.739 84.704,78.875 z"
   style="stroke:#000000;stroke-width:7.9920001" />
				<path
   id="path2544"
   d="M 127.688,28.042 C 138.344,27.178 147.776,35.17 148.64,45.826 C 149.504,56.482 141.584,65.914 130.928,66.778 C 120.272,67.641 110.84,59.65 109.976,48.994 C 109.112,38.338 117.032,28.907 127.688,28.042 z"
   style="stroke:#000000;stroke-width:7.9920001" />
				<path
   id="path2546"
   d="M 154.544,28.258 C 185.648,49.714 215.24,81.034 238.568,119.842 C 299.12,218.554 297.752,329.363 235.616,367.09 C 173.768,404.674 74.696,355.21 15.224,257.218 L 48.704,664.378 L 87.368,661.21 C 79.52,597.995 122,515.05 199.184,454.499 C 269.456,399.923 349.809,377.459 408.632,390.419 L 377.384,9.97 L 154.544,28.258 z"
   style="stroke:#000000;stroke-width:7.9920001" />
			</g>
			<path
   id="path2548"
   d="M 44.96,154.115 C 54.536,146.843 64.184,139.571 73.76,132.299 C 104.576,198.323 140.648,266.363 149.072,348.659 C 157.424,431.098 152.024,510.659 153.968,590.867 C 139.136,592.81 124.232,594.394 109.256,595.187 C 108.896,518.147 118.4,441.323 115.304,360.395 C 112.28,279.395 75.992,215.386 44.96,154.115 z"
   style="fill:#e1bdd0;stroke:#a55a4f;stroke-width:7.9920001" />
			<path
   id="path2550"
   d="M 100.4,112.787 C 109.976,105.011 119.48,97.163 128.912,89.027 C 159.584,163.762 195.08,239.218 213.439,323.674 C 231.943,408.634 247.927,486.97 252.607,572.939 C 239.72,577.331 217.183,585.323 202.352,587.699 C 199.112,504.899 193.064,421.235 179.888,337.715 C 166.856,254.411 131.288,182.771 100.4,112.787 z"
   style="fill:#e1bdd0;stroke:#a55a4f;stroke-width:7.9920001" />
			<path
   id="path2552"
   d="M 142.52,68.506 C 151.952,60.443 161.384,52.523 170.816,44.242 C 200.408,124.378 235.256,203.433 261.824,287.53 C 288.679,372.345 324.607,448.809 349.88,531.826 C 336.632,540.034 314.889,549.61 300.561,553.93 C 284.432,470.338 252.321,392.578 230.289,307.258 C 208.472,222.586 172.472,145.834 142.52,68.506 z"
   style="fill:#e1bdd0;stroke:#a55a4f;stroke-width:7.9920001" />
			<path
   id="path2554"
   d="M 35.888,91.115 C 46.616,91.115 55.328,99.827 55.328,110.483 C 55.328,121.211 46.616,129.922 35.888,129.922 C 25.232,129.922 16.52,121.21 16.52,110.483 C 16.52,99.827 25.232,91.115 35.888,91.115 z"
   style="fill:#fb674e;stroke:#ef1209;stroke-width:7.9920001" />
			<path
   id="path2556"
   d="M 95.432,51.155 C 106.088,51.155 114.8,59.867 114.8,70.594 C 114.8,81.25 106.088,89.962 95.432,89.962 C 84.704,89.962 75.992,81.25 75.992,70.594 C 75.992,59.867 84.704,51.155 95.432,51.155 z"
   style="fill:#fb674e;stroke:#ef1209;stroke-width:7.9920001" />
			<path
   id="path2558"
   d="M 142.448,3.995 C 153.104,3.995 161.888,12.779 161.888,23.434 C 161.888,34.163 153.104,42.874 142.448,42.874 C 131.72,42.874 123.008,34.162 123.008,23.434 C 123.008,12.779 131.72,3.995 142.448,3.995 z"
   style="fill:#fb674e;stroke:#ef1209;stroke-width:7.9920001" />
			<path
   id="path2560"
   d="M 169.16,6.443 C 198.392,30.346 225.32,63.97 245.408,104.651 C 297.679,207.97 287.24,318.275 222.152,350.747 C 157.423,383.147 62.816,325.691 11.551,223.235 L 11.551,631.762 L 50.36,631.762 C 47.696,568.042 96.8,488.914 178.736,434.914 C 253.256,386.314 335.12,370.474 392.72,388.186 L 392.72,6.443 L 169.16,6.443 z"
   style="fill:#d1d193;stroke:#a8a810;stroke-width:7.9920001" />
		</g></svg>
